X:122
T:Grinders,The. JGi.122
M:9/8
L:1/8
Q:3/8=120
S:Joshua Gibbons MS,1823,Tealby,Lincs.
R:Slip Jig
O:Tealby,Lincolnshire
Z:VMP/R.Greig, 2009
K:G
gfg edc BAG|gfg efg afd|gfg edc BAG|A2A ABc dBB:|
|:AAAA2BG3|AAAA2B dcB|AAAA2BG2d|gfg edc BAG:|

